X:1
T:Mato Grosso, 78.88.88.78
T:Mato Grosso, 78.88.88.78
T:Charles Hutchinson Gabriel, 1905
T:Public Domain Courtesy of the Cyber Hymnal™
C:Charles Hutchinson Gabriel, 1905
Z:Public Domain
Z:Courtesy of the Cyber Hymnal™
%%score 1 ( 2 3 )
L:1/8
Q:1/4=108
M:4/4
K:G
V:1 treble 
V:2 bass 
V:3 bass 
V:1
 [DB]2 [DA]2 [DG]3 [DF] | [CE]2 [CG]2 [B,D]3 [B,D] | [DG][DA][GB][Gc] [Gd]2 [GB]2 | [FA]6 [Dc]2 | %4
 [DB]2 [DA]2 [DG]3 [DF] | [CE]2 [CG]2 [B,D]3 [B,D] | [DG][DA][GB][Gc] [GB]2 [DA]2 | [DG]6 z [DG] | %8
 [FA]2 [FA]2 [FA]3 [GB] | [Ac]2 [Ac]2 [Ac]3 [FA] | [GB]2 [GB]2 [GB]3 [Gc] | [Gd]2 [Gd]2 [Gd]4 | %12
 [Ge]2 [Ge]2 [Ge]3 [EG] | [Dd]2 [Fd]2 [Gd]3 [GB] | [Gd][Ge][Gd][Gc] [GB]2 [DA]2 | [DG]6 |] %16
V:2
 G,2 [G,C]2 [G,B,]3 [C,G,] | [C,G,]2 [E,G,]2 G,3 G, | [G,B,][G,C][G,D][G,A,] [G,B,]2 [G,D]2 | %3
 [D,D]6 [D,A,]2 | G,2 [G,C]2 [G,B,]3 [B,,G,] | [C,G,]2 [E,G,]2 G,3 G, | %6
 [G,B,][G,C][G,D][C,E] [D,D]2 [D,C]2 | [G,,B,]6 z [G,B,] | [D,D]2 [D,D]2 [D,D]3 [D,D] | %9
 [D,D]2 [D,D]2 [D,D]3 [D,D] | [G,D]2 [G,D]2 [G,D]3 [G,A,] | [G,B,]2 [G,B,]2 [G,B,]4 | %12
 [C,C]2 [C,C]2 [C,C]3 [C,C] | [B,,G,]2 [A,,C]2 [G,,B,]3 [G,D] | %14
 [G,B,][G,C][G,B,][C,E] [D,D]2 [D,C]2 | [G,,B,]6 |] %16
V:3
 G,2 x6 | x4 G,3 G, | x8 | x8 | G,2 x6 | x4 G,3 G, | x8 | x8 | x8 | x8 | x8 | x8 | x8 | x8 | x8 | %15
 x6 |] %16

